img/svg/add-to-cart.svg

<svg width="20" height="16" viewBox="0 0 20 16" fill="none" xmlns="http://www.w3.org/2000/svg">
<path id="Union" fill-rule="evenodd" clip-rule="evenodd" d="M13.6738 13.5219L13.6769 13.5H15.0238L14.9937 13.7105C14.8061 15.0242 13.6809 16 12.3539 16H3.64612C2.31905 16 1.19393 15.0242 1.00626 13.7105L0.190476 8L0 6.66667H1.34687H4.55556L4.33218 3.98618C4.15336 1.84036 5.84674 0 8 0C9.81376 0 11.3012 1.30578 11.6183 3H10.2473C9.95698 2.04197 9.06703 1.33333 8 1.33333C6.62679 1.33333 5.54687 2.50699 5.66091 3.87546L5.89351 6.66667H9.5V8H6.05787L6.28009 10.6667H9.71991L9.7338 10.5H11.0718L11.0579 10.6667H12.5V12H10.9468L10.7245 14.6667H12.3539C13.0174 14.6667 13.58 14.1788 13.6738 13.5219ZM4.71991 8H4.66667H1.53735L1.9183 10.6667H4.94213L4.71991 8ZM6.61342 14.6667L6.3912 12H9.6088L9.38658 14.6667H6.61342ZM5.05324 12L5.27547 14.6667H3.64612C2.98259 14.6667 2.42003 14.1788 2.32619 13.5219L2.10877 12H5.05324ZM15.8 10V7.2H13V5.8H15.8V3H17.2V5.8H20V7.2H17.2V10H15.8Z" fill="white"/>
</svg>

<svg width="20" height="16" fill="none" xmlns="http://www.w3.org/2000/svg"><path fill-rule="evenodd" clip-rule="evenodd" d="m13.674 13.522.003-.022h1.347l-.03.21a2.667 2.667 0 0 1-2.64 2.29H3.646a2.667 2.667 0 0 1-2.64-2.29L.19 8 0 6.667h4.556l-.224-2.68A3.68 3.68 0 0 1 11.618 3h-1.37a2.348 2.348 0 0 0-4.587.875l.233 2.792H9.5V8H6.058l.222 2.667h3.44l.014-.167h1.338l-.014.167H12.5V12h-1.553l-.222 2.667h1.629c.663 0 1.226-.488 1.32-1.145ZM4.72 8H1.537l.381 2.667h3.024L4.72 8Zm1.893 6.667L6.391 12H9.61l-.222 2.667H6.613ZM5.053 12l.222 2.667H3.646a1.333 1.333 0 0 1-1.32-1.145L2.11 12h2.944ZM15.8 10V7.2H13V5.8h2.8V3h1.4v2.8H20v1.4h-2.8V10h-1.4Z" fill="#fff"/></svg>
